X: 7018
T: Chief O'Neill's Favourite
R: hornpipe
M: 4/4
K: Dmixolydian
de|:"D" fefg af (3gfe|"D" fded dBAG|"D" FDDE FGAB|"C" (3=cBA d^c "A" A2 de|
"D" fefg af (3gfe|"D" fded dBAG|"D" FDEF "G" GBAG|1 "D" F2 D2 D2 de:|2 "D" F2 D2 D2 DE||
|:"F" =F2 FG A2 AB|"F" (3=cBA dB cBAG|"D" Adde fded|"A" (3cBA dc A2 de|
"D" fefg af (3gfe|"D" fded dBAG|"D" FDEF "G" GBAG|1 "D" F2 D2 D2 DE:|2 "D" F2 D2 D4||

